X: 14
T: John Ryan's
Z: NfldWhistler
S: https://thesession.org/tunes/441#setting46821
R: polka
M: 2/4
L: 1/8
K: Dmaj
|:dd B/c/d/B/|AF AF|dd B/c/d/B/|AF ED|
dd B/c/d/B/|AF Ad/e/|fd ec|1 d2 d2:|2 d2 d>e||
|:fd de/f/|gf ed/e/|fd de/f/|ge a>g|
fd de/f/|gf ed/e/|fd ec|1 d2 d>e:|2 d2 d2||

